public/assets/img/casestudies/borgatta/Icon1.svg

<svg fill="none" height="52" viewBox="0 0 52 52" width="52" xmlns="http://www.w3.org/2000/svg"><g stroke-width="1.5"><g stroke="#bdbdbd"><path d="m7.50781 8.64941h21.87799" stroke-linecap="round" stroke-linejoin="round" stroke-miterlimit="10"/><path d="m7.50781 13.2812h14.24339" stroke-linecap="round" stroke-linejoin="round" stroke-miterlimit="10"/><path d="m7.50781 22.0088h21.87799" stroke-linecap="round" stroke-linejoin="round" stroke-miterlimit="10"/><path d="m7.50781 26.6406h14.24339" stroke-linecap="round" stroke-linejoin="round" stroke-miterlimit="10"/><path d="m1.5 1.50098h34v43.5h-34z"/></g><path d="m29.4896 40.4801c6.0693 0 10.9895-4.9202 10.9895-10.9896 0-6.0693-4.9202-10.9895-10.9895-10.9895-6.0694 0-10.9896 4.9202-10.9896 10.9895 0 6.0694 4.9202 10.9896 10.9896 10.9896z" stroke="#eb9542" stroke-linecap="round" stroke-linejoin="round" stroke-miterlimit="10"/><path d="m50.4975 50.5011-13.2631-13.2169" stroke="#eb9542" stroke-linecap="round" stroke-linejoin="round" stroke-miterlimit="10"/></g></svg>

<svg width="52" height="52" viewBox="0 0 52 52" fill="none" xmlns="http://www.w3.org/2000/svg">
<path d="M7.50781 8.64941H29.3858" stroke="#BDBDBD" stroke-width="1.5" stroke-miterlimit="10" stroke-linecap="round" stroke-linejoin="round"/>
<path d="M7.50781 13.2812H21.7512" stroke="#BDBDBD" stroke-width="1.5" stroke-miterlimit="10" stroke-linecap="round" stroke-linejoin="round"/>
<path d="M7.50781 22.0088H29.3858" stroke="#BDBDBD" stroke-width="1.5" stroke-miterlimit="10" stroke-linecap="round" stroke-linejoin="round"/>
<path d="M7.50781 26.6406H21.7512" stroke="#BDBDBD" stroke-width="1.5" stroke-miterlimit="10" stroke-linecap="round" stroke-linejoin="round"/>
<rect x="1.5" y="1.50098" width="34" height="43.5" stroke="#BDBDBD" stroke-width="1.5"/>
<path d="M29.4896 40.4801C35.5589 40.4801 40.4791 35.5599 40.4791 29.4905C40.4791 23.4212 35.5589 18.501 29.4896 18.501C23.4202 18.501 18.5 23.4212 18.5 29.4905C18.5 35.5599 23.4202 40.4801 29.4896 40.4801Z" stroke="#EB9542" stroke-width="1.5" stroke-miterlimit="10" stroke-linecap="round" stroke-linejoin="round"/>
<path d="M50.4975 50.5011L37.2344 37.2842" stroke="#EB9542" stroke-width="1.5" stroke-miterlimit="10" stroke-linecap="round" stroke-linejoin="round"/>
</svg>
